icon-themes/elementary_svg/cmd/sc_signpdf.svg

<svg height="16" width="16" xmlns="http://www.w3.org/2000/svg" xmlns:xlink="http://www.w3.org/1999/xlink"><linearGradient id="a" gradientTransform="matrix(.24324324 0 0 .35135133 2.162164 -.432428)" gradientUnits="userSpaceOnUse" x1="23.99999" x2="23.99999" y1="6.923065" y2="41.076912"><stop offset="0" stop-color="#fff"/><stop offset="0" stop-color="#fff" stop-opacity=".235294"/><stop offset="1" stop-color="#fff" stop-opacity=".156863"/><stop offset="1" stop-color="#fff" stop-opacity=".392157"/></linearGradient><radialGradient id="b" cx="8.276144" cy="9.994116" gradientTransform="matrix(0 2.5645243 -2.8983276 0 36.991821 -24.485687)" gradientUnits="userSpaceOnUse" r="12.671875" xlink:href="#c"/><linearGradient id="c"><stop offset="0" stop-color="#ed5353"/><stop offset="1" stop-color="#c6262e"/></linearGradient><linearGradient id="d" gradientUnits="userSpaceOnUse" x1="3" x2="13" xlink:href="#c" y1="8.015625" y2="8.015625"/><linearGradient id="e"><stop offset="0" stop-color="#d88f22"/><stop offset="1" stop-color="#d88f22" stop-opacity="0"/></linearGradient><linearGradient id="f" gradientTransform="matrix(-.93357745 0 0 1 23.379997 -20)" gradientUnits="userSpaceOnUse" x1="8.642858" x2="23.299999" y1="27.5" y2="27.5"><stop offset="0" stop-color="#fff"/><stop offset="1" stop-color="#fff" stop-opacity="0"/></linearGradient><linearGradient id="g" gradientTransform="matrix(.66666666 0 0 .46666666 -3.166667 1.466666)" gradientUnits="userSpaceOnUse" x1="24" x2="24" xlink:href="#e" y1="29" y2="14"/><linearGradient id="h" gradientTransform="matrix(.66666666 0 0 .46666666 -12.166666 1.466666)" gradientUnits="userSpaceOnUse" x1="24" x2="24" xlink:href="#e" y1="29" y2="14"/><radialGradient id="i" cx="16.823883" cy="11.368058" fx="16.777113" fy="11.597148" gradientTransform="matrix(0 .80952381 -1.1390522 0 20.948813 -5.369334)" gradientUnits="userSpaceOnUse" r="10.5"><stop offset="0" stop-color="#f2e0c4"/><stop offset=".76470584" stop-color="#e5af5b"/><stop offset="1" stop-color="#af6900"/></radialGradient><path d="m12.5 14.5h-9.0000001v-13h9.0000001z" fill="none" stroke="url(#a)" stroke-linecap="round"/><path d="m2.499962.49997396c2.520676 0 11.000063.000954 11.000063.000954l.000013 14.99909804s-7.333384 0-11.000076 0c0-5.000017 0-10.000035 0-15.00005204z" fill="#e9e9e9" stroke="#8c8c8c" stroke-linejoin="round" stroke-width=".999922"/><path d="m12.5 14.5h-9v-13h9z" fill="none" stroke="#fff" stroke-linecap="round"/><path d="m9.277174 1.0000001c-2.923595 2.785415-4.992324 3.942359-6.277174 4.420259v1.478448c.714076-.233471 1.599342-.619164 2.52038-1.259698 2.11904-1.473684 4.64674-4.269396 4.64674-4.269396-.694786 1.513247-.896901 6.73017-.910326 13.6303869h3.743206v-5.3178879c-.164185-.811487-.310692-1.632538-.441576-2.421336-.344776-2.905015.164509-5.442462.353261-6.260776-.04911-.00000504-2.209655.000165-3.634511 0zm-6.277174 7.686422v1.4256469c1.631445.747709 3.523823 2.675395 4.558424 4.887931h1.11413c-.490311-2.028702-3.66792-5.0887079-5.672554-6.3135779z" fill="url(#b)"/><path d="m12.3125 1.03125c-1.379115 1.1426409-5.9033863 4.5971408-9.3125 4.15625v3.15625s7.072543 1.4589543 10-1.1875v-6.0625c-.07417-.051631-.160615-.0625-.25-.0625h-.4375zm.65625 7.5625c-1.305828 1.793247-2.608733 4.060196-3.5 6.40625h1.125c.690809-1.542126 1.561646-3.227005 2.375-4.40625v-2z" fill="url(#d)" fill-rule="evenodd" opacity=".25"/><path d="m2.5 5.315775v1.50405m6.831371 8.680175h4.168629v-5.777528m-.34468-9.22196402-3.817416-.000508m-6.837904 8.24935902v1.434608m5.05633 5.306092 1.149386.0099" fill="none" opacity=".2" stroke="#410000" stroke-linejoin="round"/><g transform="matrix(.53330255 0 0 .53330255 8.533764 7.467159)"><path d="m4.4999998 6.4996391v-1.3753574c0-2.4782011 1.3702785-3.6555186 3.4872865-3.62457 2.1285247.030949 3.5133857 1.1172142 3.5133857 3.62457v1.3753574h-1.431082v-.7455829c0-.6297745.148159-2.6676754-2.0673917-2.6676754-2.1972832 0-2.0371829 2.0504603-2.0286629 2.6651649v.7480934z" fill="none" stroke="#e9e9e9" stroke-linecap="square"/><rect fill="url(#i)" height="8" rx=".523809" ry=".533333" width="11" x="2.5" y="7.5"/><rect fill="url(#h)" height="7" rx="1.6" ry=".5" width="1" x="3" y="8"/><rect fill="url(#g)" height="7" rx="1.6" ry=".5" width="1" x="12" y="8"/><g fill="none"><rect height="8" rx=".52381" ry=".533333" stroke="#de9d3c" width="11" x="2.5" y="7.5"/><path d="m3.5 9.5 9-.000379m-9 2.000379 9-.000379m-9 2.000379 9-.000379" stroke="url(#f)" stroke-linecap="square"/><path d="m5.2 6s-.5898303-3.5 2.8-3.5c3.38983 0 2.8 3.5 2.8 3.5" stroke="#fff" stroke-linecap="round"/></g></g></svg>

<?xml version="1.0" encoding="UTF-8" standalone="no"?>
<svg
   xmlns:dc="http://purl.org/dc/elements/1.1/"
   xmlns:cc="http://creativecommons.org/ns#"
   xmlns:rdf="http://www.w3.org/1999/02/22-rdf-syntax-ns#"
   xmlns:svg="http://www.w3.org/2000/svg"
   xmlns="http://www.w3.org/2000/svg"
   xmlns:xlink="http://www.w3.org/1999/xlink"
   xmlns:sodipodi="http://sodipodi.sourceforge.net/DTD/sodipodi-0.dtd"
   xmlns:inkscape="http://www.inkscape.org/namespaces/inkscape"
   version="1.1"
   width="16"
   height="16"
   id="svg3810"
   sodipodi:docname="sc_signpdf.svg"
   inkscape:version="0.92.3 (unknown)"
   inkscape:export-filename="/home/rizmut/Dokumen/Rizmut/Github/libreoffice-style-elementary/images_elementary/cmd/sc_signpdf.png"
   inkscape:export-xdpi="96"
   inkscape:export-ydpi="96">
  <sodipodi:namedview
     pagecolor="#ffffff"
     bordercolor="#666666"
     borderopacity="1"
     objecttolerance="10"
     gridtolerance="10"
     guidetolerance="10"
     inkscape:pageopacity="0"
     inkscape:pageshadow="2"
     inkscape:window-width="1366"
     inkscape:window-height="706"
     id="namedview33"
     showgrid="false"
     inkscape:zoom="20.85965"
     inkscape:cx="8.4768192"
     inkscape:cy="9.9052923"
     inkscape:window-x="0"
     inkscape:window-y="0"
     inkscape:window-maximized="1"
     inkscape:current-layer="svg3810" />
  <defs
     id="defs3812">
    <linearGradient
       x1="23.99999"
       y1="6.9230647"
       x2="23.99999"
       y2="41.076912"
       id="linearGradient3988"
       xlink:href="#linearGradient3977"
       gradientUnits="userSpaceOnUse"
       gradientTransform="matrix(0.24324324,0,0,0.35135133,2.1621636,-0.43242804)" />
    <linearGradient
       id="linearGradient3977">
      <stop
         id="stop3979"
         style="stop-color:#ffffff;stop-opacity:1"
         offset="0" />
      <stop
         id="stop3981"
         style="stop-color:#ff9f9f;stop-opacity:0.87132353"
         offset="0.99017823" />
      <stop
         id="stop3983"
         style="stop-color:#ffffff;stop-opacity:0.15686275"
         offset="1" />
      <stop
         id="stop3985"
         style="stop-color:#febcbc;stop-opacity:0.39215687"
         offset="1" />
    </linearGradient>
    <linearGradient
       id="linearGradient3600">
      <stop
         id="stop3602"
         style="stop-color:#f4f4f4;stop-opacity:1"
         offset="0" />
      <stop
         id="stop3604"
         style="stop-color:#dbdbdb;stop-opacity:1"
         offset="1" />
    </linearGradient>
    <linearGradient
       x1="25.132275"
       y1="0.98520643"
       x2="25.132275"
       y2="47.013336"
       id="linearGradient3806"
       xlink:href="#linearGradient3242-4-8"
       gradientUnits="userSpaceOnUse"
       gradientTransform="matrix(0.28571361,0,0,0.30419701,1.1428727,0.2326048)" />
    <linearGradient
       id="linearGradient3104-9">
      <stop
         id="stop3106-5"
         style="stop-color:#ae0000;stop-opacity:0.96078432"
         offset="0" />
      <stop
         id="stop3108-5"
         style="stop-color:#b20000;stop-opacity:0.49411765"
         offset="1" />
    </linearGradient>
    <linearGradient
       x1="-51.786404"
       y1="50.786446"
       x2="-51.786404"
       y2="2.9062471"
       id="linearGradient3019"
       xlink:href="#linearGradient3104-9"
       gradientUnits="userSpaceOnUse"
       gradientTransform="matrix(0.25378586,0,0,0.30501865,19.128979,-0.68547704)" />
    <radialGradient
       r="12.671875"
       fy="9.9941158"
       fx="8.276144"
       cy="9.9941158"
       cx="8.276144"
       gradientTransform="matrix(0,2.5645243,-2.8983276,0,36.991821,-24.485687)"
       gradientUnits="userSpaceOnUse"
       id="radialGradient3411"
       xlink:href="#linearGradient3600" />
    <linearGradient
       id="linearGradient3242-4-8">
      <stop
         offset="0"
         style="stop-color:#f89b7e;stop-opacity:1"
         id="stop3244-7-5" />
      <stop
         offset="0.26238"
         style="stop-color:#e35d4f;stop-opacity:1"
         id="stop3246-1-3" />
      <stop
         offset="0.66093999"
         style="stop-color:#c6262e;stop-opacity:1"
         id="stop3248-5-7" />
      <stop
         offset="1"
         style="stop-color:#690b2c;stop-opacity:1"
         id="stop3250-7-0" />
    </linearGradient>
    <linearGradient
       y2="41.814945"
       x2="23.99999"
       y1="6.1851163"
       x1="23.99999"
       gradientTransform="matrix(0.24324054,0,0,0.35134798,2.1614594,-0.43236222)"
       gradientUnits="userSpaceOnUse"
       id="linearGradient3132"
       xlink:href="#linearGradient3977" />
    <linearGradient
       inkscape:collect="always"
       xlink:href="#linearGradient3977"
       id="linearGradient868"
       x1="7.1227922"
       y1="-5.4709835"
       x2="7.0075693"
       y2="4.6921782"
       gradientUnits="userSpaceOnUse" />
    <radialGradient
       id="i"
       cx="16.823883"
       cy="11.368058"
       fx="16.777113"
       fy="11.597148"
       gradientTransform="matrix(0,0.80952381,-1.1390522,0,20.948813,-5.369334)"
       gradientUnits="userSpaceOnUse"
       r="10.5">
      <stop
         offset="0"
         stop-color="#f2e0c4"
         id="stop30" />
      <stop
         offset=".76470584"
         stop-color="#e5af5b"
         id="stop32" />
      <stop
         offset="1"
         stop-color="#af6900"
         id="stop34" />
    </radialGradient>
    <linearGradient
       id="h"
       gradientTransform="matrix(0.66666666,0,0,0.46666666,-12.166666,1.466666)"
       gradientUnits="userSpaceOnUse"
       x1="24"
       x2="24"
       xlink:href="#e"
       y1="29"
       y2="14" />
    <linearGradient
       id="e">
      <stop
         offset="0"
         stop-color="#d88f22"
         id="stop18" />
      <stop
         offset="1"
         stop-color="#d88f22"
         stop-opacity="0"
         id="stop20" />
    </linearGradient>
    <linearGradient
       id="g"
       gradientTransform="matrix(0.66666666,0,0,0.46666666,-3.166667,1.466666)"
       gradientUnits="userSpaceOnUse"
       x1="24"
       x2="24"
       xlink:href="#e"
       y1="29"
       y2="14" />
    <linearGradient
       id="f"
       gradientTransform="matrix(-0.93357745,0,0,1,23.379997,-20)"
       gradientUnits="userSpaceOnUse"
       x1="8.6428576"
       x2="23.299999"
       y1="27.5"
       y2="27.5">
      <stop
         offset="0"
         stop-color="#fff"
         id="stop23" />
      <stop
         offset="1"
         stop-color="#fff"
         stop-opacity="0"
         id="stop25" />
    </linearGradient>
  </defs>
  <metadata
     id="metadata3815">
    <rdf:RDF>
      <cc:Work
         rdf:about="">
        <dc:format>image/svg+xml</dc:format>
        <dc:type
           rdf:resource="http://purl.org/dc/dcmitype/StillImage" />
        <dc:title></dc:title>
      </cc:Work>
    </rdf:RDF>
  </metadata>
  <g
     id="g896">
    <path
       d="m 3,1 c 2.2915074,0 9.999988,8.904e-4 9.999988,8.904e-4 L 13,15 C 13,15 6.3333332,15 3,15 3,10.333334 3,5.6666664 3,1 Z"
       id="path4160"
       style="display:inline;fill:url(#linearGradient3806);fill-opacity:1.0;stroke:none" />
    <path
       mask="none"
       clip-path="none"
       d="m 12.5,14.5 -9.0000001,0 0,-13 L 12.5,1.5 Z"
       id="rect6741-1"
       style="fill:none;stroke:url(#linearGradient868);stroke-width:1;stroke-linecap:round;stroke-linejoin:miter;stroke-miterlimit:4;stroke-dasharray:none;stroke-dashoffset:0;stroke-opacity:0.87058824" />
    <path
       d="m 2.4999621,0.49997396 c 2.5206756,0 11.0000629,9.54e-4 11.0000629,9.54e-4 l 1.3e-5,14.99909804 c 0,0 -7.3333841,0 -11.000076,0 0,-5.000017 0,-10.000035 0,-15.00005204 z"
       id="path4160-8"
       style="display:inline;fill:none;stroke:url(#linearGradient3019);stroke-width:0.99992192;stroke-linecap:butt;stroke-linejoin:round;stroke-miterlimit:4;stroke-dasharray:none;stroke-dashoffset:0;stroke-opacity:1" />
    <path
       sodipodi:nodetypes="cccscccccccccccc"
       inkscape:connector-curvature="0"
       id="path6711"
       d="M 9.277174,1.0000001 C 6.353579,3.7854151 4.28485,4.9423591 3,5.4202591 v 1.478448 C 3.714076,6.6652361 4.599342,6.2795431 5.52038,5.6390091 7.63942,4.1653251 10.16712,1.3696131 10.16712,1.3696131 9.472334,2.8828601 9.270219,8.0997831 9.256794,15 H 13 l -0.04794,-1.866248 C 12.787876,12.322265 11.994244,7.9849451 11.86336,7.1961471 11.518584,4.2911321 12.123748,1.849564 12.3125,1.03125 c -0.04911,-5e-6 -1.61047,-0.031085 -3.035326,-0.03125 z M 3,8.6864221 V 10.112069 C 4.631445,10.859778 6.523823,12.787464 7.558424,15 h 1.11413 C 8.182243,12.971298 5.004634,9.9112921 3,8.6864221 Z"
       style="color:#000000;clip-rule:nonzero;display:inline;overflow:visible;visibility:visible;opacity:1;isolation:auto;mix-blend-mode:normal;color-interpolation:sRGB;color-interpolation-filters:linearRGB;solid-color:#000000;solid-opacity:1;fill:url(#radialGradient3411);fill-opacity:1;fill-rule:nonzero;stroke:none;stroke-width:0.99999994;stroke-linecap:butt;stroke-linejoin:miter;stroke-miterlimit:4;stroke-dasharray:none;stroke-dashoffset:0;stroke-opacity:1;marker:none;color-rendering:auto;image-rendering:auto;shape-rendering:auto;text-rendering:auto;enable-background:accumulate" />
    <path
       id="path6713-2"
       d="M 12.3125,1.03125 C 10.933385,2.1738909 6.4091137,5.6283908 3,5.1875 l 0,3.15625 c 0,0 7.072543,1.4589543 10,-1.1875 l 0,-6.0625 C 12.92583,1.042119 12.839385,1.03125 12.75,1.03125 l -0.4375,0 z m 0.65625,7.5625 c -1.305828,1.793247 -2.608733,4.060196 -3.5,6.40625 l 1.125,0 c 0.690809,-1.542126 1.561646,-3.227005 2.375,-4.40625 l 0,-2 z"
       style="color:#000000;display:inline;overflow:visible;visibility:visible;opacity:0.1;fill:#fff6f6;fill-opacity:1;fill-rule:evenodd;stroke:none;stroke-width:1;marker:none;enable-background:accumulate;clip-rule:nonzero;isolation:auto;mix-blend-mode:normal;color-interpolation:sRGB;color-interpolation-filters:linearRGB;solid-color:#000000;solid-opacity:1;stroke-linecap:butt;stroke-linejoin:miter;stroke-miterlimit:4;stroke-dasharray:none;stroke-dashoffset:0;stroke-opacity:1;filter-blend-mode:normal;filter-gaussianBlur-deviation:0;color-rendering:auto;image-rendering:auto;shape-rendering:auto;text-rendering:auto" />
    <path
       id="rect6741-1-8-0"
       d="m 3.4992804,5.5202017 0,1.401819 m 5.656969,7.5779293 3.3429306,0 0,-5.4478063 m -0.0055,-7.5520934 -3.4382436,0 m -5.556188,7.2148914 0,1.3318833 m 4.038627,4.453125 1.049207,0"
       style="opacity:0.3;fill:none;stroke:url(#linearGradient3132);stroke-width:1;stroke-linecap:round;stroke-linejoin:miter;stroke-miterlimit:4;stroke-dasharray:none;stroke-dashoffset:0;stroke-opacity:1" />
    <path
       id="path4160-6-1-0"
       d="m 2.5,5.315775 0,1.50405 M 9.331371,15.5 13.5,15.5 13.5,9.722472 M 13.15532,0.50050798 9.337904,0.49999998 M 2.5,8.749359 l 0,1.434608 m 5.05633,5.306092 1.149386,0.0099"
       style="color:#000000;display:inline;overflow:visible;visibility:visible;opacity:0.2;fill:none;stroke:#410000;stroke-width:1;stroke-linecap:butt;stroke-linejoin:round;stroke-miterlimit:4;stroke-dasharray:none;stroke-dashoffset:0;stroke-opacity:1;marker:none;enable-background:accumulate" />
  </g>
  <g
     transform="matrix(0.53330255,0,0,0.53330255,8.533764,7.467159)"
     id="g65">
    <path
       style="fill:none;stroke:#e9e9e9;stroke-linecap:square"
       inkscape:connector-curvature="0"
       d="M 4.4999998,6.4996391 V 5.1242817 c 0,-2.4782011 1.3702785,-3.6555186 3.4872865,-3.62457 2.1285247,0.030949 3.5133857,1.1172142 3.5133857,3.62457 V 6.4996391 H 10.06959 V 5.7540562 c 0,-0.6297745 0.148159,-2.6676754 -2.0673917,-2.6676754 -2.1972832,0 -2.0371829,2.0504603 -2.0286629,2.6651649 v 0.7480934 z"
       id="path49" />
    <rect
       style="fill:url(#i)"
       height="8"
       rx="0.52380902"
       ry="0.533333"
       width="11"
       x="2.5"
       y="7.5"
       id="rect51" />
    <rect
       style="fill:url(#h)"
       height="7"
       rx="1.6"
       ry="0.5"
       width="1"
       x="3"
       y="8"
       id="rect53" />
    <rect
       style="fill:url(#g)"
       height="7"
       rx="1.6"
       ry="0.5"
       width="1"
       x="12"
       y="8"
       id="rect55" />
    <g
       style="fill:none"
       id="g63">
      <rect
         style="stroke:#de9d3c"
         height="8"
         rx="0.52381003"
         ry="0.533333"
         width="11"
         x="2.5"
         y="7.5"
         id="rect57" />
      <path
         style="stroke:url(#f);stroke-linecap:square"
         inkscape:connector-curvature="0"
         d="m 3.5,9.5 9,-3.79e-4 M 3.5,11.5 l 9,-3.79e-4 M 3.5,13.5 l 9,-3.79e-4"
         id="path59" />
      <path
         style="stroke:#ffffff;stroke-linecap:round"
         inkscape:connector-curvature="0"
         d="M 5.2,6 C 5.2,6 4.6101697,2.5 8,2.5 11.38983,2.5 10.8,6 10.8,6"
         id="path61" />
    </g>
  </g>
</svg>
